images/message-badge.svg

<?xml version="1.0" encoding="UTF-8"?>
<svg id="Layer_1" data-name="Layer 1" xmlns="http://www.w3.org/2000/svg" version="1.1" viewBox="0 0 24 24">
  <defs>
    <style>
      .cls-1 {
        fill: #2d2827;
        stroke-width: 0px;
      }
    </style>
  </defs>
  <path class="cls-1" d="M22,7v9c0,1.1-.9,2-2,2H6l-4,4V4c0-1.1.9-2,2-2h10.1c-.1.3-.1.7-.1,1,0,2.8,2.2,5,5,5s2.2-.4,3-1M16,3c0,1.7,1.3,3,3,3s3-1.3,3-3-1.3-3-3-3-3,1.3-3,3Z"/>
</svg>

<svg xmlns="http://www.w3.org/2000/svg" viewBox="0 0 24 24"><path d="M22 7V16C22 17.1 21.1 18 20 18H6L2 22V4C2 2.9 2.9 2 4 2H14.1C14 2.3 14 2.7 14 3C14 5.8 16.2 8 19 8C20.1 8 21.2 7.6 22 7M16 3C16 4.7 17.3 6 19 6S22 4.7 22 3 20.7 0 19 0 16 1.3 16 3Z" /></svg>
